X: 10
T: Air for a Whistle
C: Armand Aromin
H: 10/2/04
M: 4/4
L: 1/8
R: Air
K: Dmaj
E2 B2 B2 AG | FGAB A2 GF | E2 B2 B2 Bc | dedc B2 BA |
E2 B2 B2 AG | FGAB A2 GF | GFEG FE D2 | E8 :|
B2 e2 e2 de | fgfe d2 dc | B2 e2 e2 dc | d2 B2 B2 BA |
B2 e2 e2 de | fgfe d2 ef | gfeg fedg | e8 :|
